X: 92
T: THE BURNT OLD MAN
B: O'Neill's 92
M: 6/8
L: 1/8
Z: Transcribed by John Chambers <jc@trillian.mit.edu>
N: "Moderate"
N: "Collected by F.o'Neill"
N: 3rd Setting.
K:D
(DFd) (B/A/G/F/E/D/) | (DF).F (TF2E) | (DFd) (B/A/G/F/E/D/) | (FE).E EG(F/E/) |
| (DB,C) (DEF) | (ABc) d2e | (fdB) (Bcd) | (B/A/G/F/E/D/) TE2D ||
|| .D.d.d (dAF) | BAA A2A | (Be).e (efg) | fdB B2 ((3A/B/c/) |
| .d(f/e/d/c/) dfa | DFA d2e | (f/e/d/c/B/A/) (Bcd) | (B/A/G/F/E/D/) TE2D ||


